X:1
T:We shall walk through the streets of the city
M:4/4
L:1/4
C:Garfield Thomas Haywood
F:https://www.youtube.com/watch?v=domVf8BEY64
R:Traditional
K:Fmaj
CF || "F" A2 AA | A2 GA|GF3-|F2 CA|
w:We shall walk through the streets of the ci-ty, _ Where our
A2 FA | c2 BA| "C7" G4-|G2 AB |
w:loved ones have gone on be-fore, _ We will
"F" c2AG | "F7" F2 GA | "Bb" c B3-|"Bbm" B2 A G |
w:sit on the banks of the riv-er, _ where_
"F" F2 C F | "C7" A2 G2 | "F" F4-|F2 z2 |]
w:we'll meet to part no more.
